assets/icons/qvision/snooze.svg

<svg xmlns="http://www.w3.org/2000/svg" height="24" viewBox="0 0 24 24" width="24"><path d="M0 0h24v24H0z" fill="none"/><path d="M7.88 3.39L6.6 1.86 2 5.71l1.29 1.53 4.59-3.85zM22 5.72l-4.6-3.86-1.29 1.53 4.6 3.86L22 5.72zM12 4c-4.97 0-9 4.03-9 9s4.02 9 9 9c4.97 0 9-4.03 9-9s-4.03-9-9-9zm0 16c-3.87 0-7-3.13-7-7s3.13-7 7-7 7 3.13 7 7-3.13 7-7 7zm-3-9h3.63L9 15.2V17h6v-2h-3.63L15 10.8V9H9v2z"/></svg>

<svg width="24" height="24" viewBox="0 0 24 24" fill="none" xmlns="http://www.w3.org/2000/svg">
<g clip-path="url(#clip0_147_1653)">
<path d="M7.88 3.39L6.6 1.86L2 5.71L3.29 7.24L7.88 3.39ZM22 5.72L17.4 1.86L16.11 3.39L20.71 7.25L22 5.72ZM12 4C7.03 4 3 8.03 3 13C3 17.97 7.02 22 12 22C16.97 22 21 17.97 21 13C21 8.03 16.97 4 12 4ZM12 20C8.13 20 5 16.87 5 13C5 9.13 8.13 6 12 6C15.87 6 19 9.13 19 13C19 16.87 15.87 20 12 20ZM9 11H12.63L9 15.2V17H15V15H11.37L15 10.8V9H9V11Z" fill="#323232"/>
</g>
<defs>
<clipPath id="clip0_147_1653">
<rect width="24" height="24" fill="white"/>
</clipPath>
</defs>
</svg>
